X: 4
T: The Lark In The Morning
R: jig
M: 6/8
L: 1/8
K: Dmaj
~A3{c}AdB|~A3 D2{d}A|AFA f+slide+ge|fdB {d}BAF|
~A3{c}AdB|~A3 D2{d}A|gfe fed|edB BAF :|
Adf ~a3|abf afd|Adf agf|gfe fdB|
Adf ~a3|abf afd|fge fed|edB BAF :|


Tune 1578	Setting 14985

